svg/color/rioton.svg

<svg width="40" height="40" viewBox="0 0 40 40" fill="none" xmlns="http://www.w3.org/2000/svg">
<g clip-path="url(#clip0_819_3557)">
<path d="M20 0C31.0457 0 40 8.9543 40 20C40 31.0457 31.0457 40 20 40C8.95431 40 7.90517e-06 31.0457 0 20C6.58765e-07 8.95431 8.95431 1.97595e-06 20 0Z" fill="#FAE8D8"/>
<path d="M26 6C30.4183 6 34 9.58172 34 14V26C34 30.4183 30.4183 34 26 34H14C9.58172 34 6 30.4183 6 26V14C6 9.58172 9.58172 6 14 6H26Z" fill="#E88D3D"/>
<path d="M28.6711 15.0049V24.9951L20.0024 30L11.333 24.9951V15.0049L20.0024 10L28.6711 15.0049ZM15.284 17.6546H16.7456V18.7988H19.8665C19.8656 18.7925 19.8411 18.6418 19.7095 18.6418H19.1471V18.0575H20.7194C21.124 18.0575 21.4393 18.1256 21.6634 18.3049C21.8874 18.4623 22.0003 18.7315 22.0003 19.0682V19.091C22.0003 19.405 21.8878 19.6515 21.6634 19.8307C21.4389 20.0108 21.124 20.1009 20.7194 20.1009H19.1471V19.5174H19.7095C19.8439 19.5174 19.8665 19.3595 19.8665 19.3595H15.284V21.0653H16.7456V24.6118H19.126V21.9857H20.1807L21.932 24.6118H24.6956L22.6286 21.604C23.1676 21.3569 23.6173 21.0205 23.9323 20.5941C24.246 20.1459 24.4035 19.6066 24.4035 18.9331V18.9103C24.4035 18.0576 24.1561 17.3842 23.6401 16.8913C23.347 16.5994 22.9886 16.3521 22.5163 16.1947C22.0682 16.0372 21.5059 15.9473 20.8325 15.9473H15.284V17.6546Z" fill="white"/>
</g>
<defs>
<clipPath id="clip0_819_3557">
<rect width="40" height="40" fill="white"/>
</clipPath>
</defs>
</svg>

<svg xmlns="http://www.w3.org/2000/svg" width="40" height="40" fill="none" viewBox="0 0 40 40"><g clip-path="url(#rioton_svg-a)"><path fill="#FAE8D8" d="M20 0c11.046 0 20 8.954 20 20s-8.954 20-20 20S0 31.046 0 20 8.954 0 20 0"/><path fill="#E88D3D" d="M26 6a8 8 0 0 1 8 8v12a8 8 0 0 1-8 8H14a8 8 0 0 1-8-8V14a8 8 0 0 1 8-8z"/><path fill="#fff" d="M28.671 15.005v9.99L20.002 30l-8.669-5.005v-9.99L20.003 10zm-13.387 2.65h1.462v1.144h3.12c0-.006-.025-.157-.157-.157h-.562v-.584h1.572c.405 0 .72.068.944.247.224.157.337.427.337.763v.023q0 .47-.337.74-.336.27-.944.27h-1.572v-.584h.563c.134 0 .156-.157.156-.157h-4.582v1.705h1.462v3.547h2.38v-2.626h1.055l1.751 2.626h2.764l-2.067-3.008c.539-.247.988-.584 1.303-1.01.314-.448.472-.987.472-1.66v-.024c0-.852-.248-1.526-.764-2.019a2.8 2.8 0 0 0-1.124-.696c-.448-.158-1.01-.248-1.683-.248h-5.549z"/></g><defs><clipPath id="rioton_svg-a"><path fill="#fff" d="M0 0h40v40H0z"/></clipPath></defs></svg>
